img/icons/flecha-izq.svg

<?xml version="1.0" encoding="UTF-8"?>
<svg xmlns="http://www.w3.org/2000/svg" xmlns:xlink="http://www.w3.org/1999/xlink" width="50px" height="px" viewBox="0 0 50 50" version="1.1">
<g id="surface1">
<path style=" stroke:none;fill-rule:nonzero;fill:rgb(42.745098%,76.078433%,72.941178%);fill-opacity:1;" d="M 41.898438 43.898438 C 35.601562 39.699219 29.300781 35.5 22.398438 32.300781 C 17.5 30 11.199219 28.300781 8.5 23.101562 L 7.601562 26.5 C 14.398438 23.300781 21 19.800781 27.398438 15.898438 C 30.601562 14 33.699219 12 36.800781 9.898438 C 39.5 8.101562 42.300781 5.601562 45.699219 5.101562 C 47 4.898438 47.800781 3.199219 47.5 2 C 47.101562 0.601562 45.800781 0.101562 44.398438 0.199219 C 40.800781 0.699219 37.800781 3.101562 34.898438 5.101562 C 31.800781 7.199219 28.601562 9.300781 25.300781 11.199219 C 18.800781 15.199219 12 18.800781 5.101562 22 C 3.800781 22.601562 3.601562 24.300781 4.199219 25.398438 C 7.199219 31.199219 13.5 33.5 19 36 C 26.199219 39.199219 32.800781 43.601562 39.300781 47.898438 C 42 49.699219 44.5 45.398438 41.800781 43.601562 Z M 41.898438 43.898438 "/>
</g>
</svg>

<?xml version="1.0" encoding="UTF-8"?>
<svg id="Layer_1" xmlns="http://www.w3.org/2000/svg" version="1.1" viewBox="0 0 50 50">
  <!-- Generator: Adobe Illustrator 29.0.0, SVG Export Plug-In . SVG Version: 2.1.0 Build 186)  -->
  <defs>
    <style>
      .st0 {
        fill: #6dc2ba;
      }
    </style>
  </defs>
  <path class="st0" d="M41.9,43.9c-6.3-4.2-12.6-8.4-19.5-11.6-4.9-2.3-11.2-4-13.9-9.2l-.9,3.4c6.8-3.2,13.4-6.7,19.8-10.6,3.2-1.9,6.3-3.9,9.4-6,2.7-1.8,5.5-4.3,8.9-4.8,1.3-.2,2.1-1.9,1.8-3.1-.4-1.4-1.7-1.9-3.1-1.8-3.6.5-6.6,2.9-9.5,4.9-3.1,2.1-6.3,4.2-9.6,6.1-6.5,4-13.3,7.6-20.2,10.8-1.3.6-1.5,2.3-.9,3.4,3,5.8,9.3,8.1,14.8,10.6,7.2,3.2,13.8,7.6,20.3,11.9,2.7,1.8,5.2-2.5,2.5-4.3h0Z"/>
</svg>
